X: 60
M:C|
L:1/8
K:Bb
(uD>.E)|vF>Bd>c B>AG>F|E>Gc>d e>dc>B|\
|:((3ufga)|k[b2d2]D>F B>df>b|k[g2B2]E>G B>eg>b|\
k[f2A2]C>E A>ce>f|k[d2F2]B,>D F>Ad>f|
k[b2d2]D>F B>df>b|k[g2B2]E>G B>eg>b|\
a>gf>=e _e>Ad>c|B2b2B2:|


